CSETWebApi/CSETWeb_Api/CSETWeb_ApiCore/Diagram/src/main/webapp/img/lib/ibm/analytics/data_repositories.svg

<svg xmlns="http://www.w3.org/2000/svg" viewBox="0 0 60.1 59.9"><circle cx="30" cy="30" r="30" fill="#734198"/><path d="M46.9 24.5a2.26 2.26 0 0 0-2.3 2.3c0 .8.4 1.5 1 1.9l-4.5 9.8c-.3-.1-.6-.1-.8-.1-.5 0-1.1.2-1.6.4l-.7-4.7c.9-.3 1.5-1.2 1.6-2.2 0-1.4-1-2.5-2.4-2.7-.7 0-1.3-.5-1.8.5l-2.2-.2c-.1-1.2-1.1-2-2.3-1.9-.2 0-.2.1-.4.1L28.8 22c0-.5.1-.6.1-.9 0-1.3-1.1-2.4-2.4-2.4s-2.3 1.1-2.3 2.4l-9.4 8c-.9-.9-2.3-1-3.3-.1-.9.9-1 2.3-.1 3.3.9.9 2.3 1 3.3.1.5-.4.7-1.1.7-1.7 0-.2-.2-.4-.3-.6l9-7.8c.5.8 1.3 1.2 2.2 1.2.5 0 1-.2 1.5-.5v-.2l1.7 5c-.6 0-.9 1.3-.9 2 0 1.3 1 2.4 2.3 2.4 1 0 1.8-.5 2.2-1.4l2.1.5v.5c-.1 1.2.9 2.3 2.1 2.3h-.2l1.2 5.8c-.1.3-.2.5-.2.8a2.26 2.26 0 0 0 2.3 2.3c1.2 0 2.2-1 2.1-2.2v-.1c-.1-.7-.4-1.3-1-1.7l4.7-10h.4c1.3 0 2.4-1 2.4-2.3.1-1.2-.9-2.2-2.1-2.2zm-33.8 7.4c-.7 0-1.3-.6-1.3-1.3s.6-1.3 1.3-1.3 1.3.6 1.3 1.3-.6 1.3-1.3 1.3zm2-2.4zm9.2-7.8zm2.2.7c-.7 0-1.3-.6-1.3-1.3s.6-1.3 1.3-1.3 1.3.6 1.3 1.3-.6 1.3-1.3 1.3zm1.8.1zm1.7 5.4zm1 3.4c-.7 0-1.3-.6-1.3-1.3s.6-1.3 1.3-1.3 1.3.6 1.3 1.3-.6 1.3-1.3 1.3zm2.3-.9V30v.4zm2.1.4zm.7 1.1c0-.7.6-1.3 1.3-1.3s1.3.6 1.3 1.3-.6 1.3-1.3 1.3-1.3-.5-1.3-1.3zm2.7 7.5zm1.8 2.7c-.7 0-1.3-.6-1.3-1.3s.6-1.3 1.3-1.3 1.3.6 1.3 1.3-.6 1.3-1.3 1.3zm1.1-3.3zm4.4-9.8zm.9-.9c-.7 0-1.3-.6-1.3-1.3s.6-1.3 1.3-1.3 1.3.6 1.3 1.3-.6 1.3-1.3 1.3c0 0-.1 0 0 0z" fill="#fff"/></svg>

<?xml version="1.0" encoding="utf-8"?>
<!-- Generator: Adobe Illustrator 21.1.0, SVG Export Plug-In . SVG Version: 6.00 Build 0)  -->
<svg version="1.1" id="Layer_1" xmlns="http://www.w3.org/2000/svg" xmlns:xlink="http://www.w3.org/1999/xlink" x="0px" y="0px"
	 viewBox="0 0 60.1 59.9" style="enable-background:new 0 0 60.1 59.9;" xml:space="preserve">
<style type="text/css">
	.st0{fill:#734198;}
	.st1{fill:#FFFFFF;}
</style>
<title>INDIVIDUAL ICONS</title>
<ellipse class="st0" cx="30" cy="30" rx="30" ry="30"/>
<path class="st1" d="M46.9,24.5c-1.3,0-2.3,1-2.3,2.3c0,0.8,0.4,1.5,1,1.9l0,0l-4.5,9.8c-0.3-0.1-0.6-0.1-0.8-0.1
	c-0.5,0-1.1,0.2-1.6,0.4l0,0L38,34.1c0.9-0.3,1.5-1.2,1.6-2.2c0-1.4-1-2.5-2.4-2.7c-0.7,0-1.3-0.5-1.8,0.5l0,0l-2.2-0.2
	c-0.1-1.2-1.1-2-2.3-1.9c-0.2,0-0.2,0.1-0.4,0.1L28.8,22l0,0c0-0.5,0.1-0.6,0.1-0.9c0-1.3-1.1-2.4-2.4-2.4c-1.3,0-2.3,1.1-2.3,2.4
	l0,0l0,0l-9.4,8c-0.9-0.9-2.3-1-3.3-0.1c-0.9,0.9-1,2.3-0.1,3.3c0.9,0.9,2.3,1,3.3,0.1c0.5-0.4,0.7-1.1,0.7-1.7
	c0-0.2-0.2-0.4-0.3-0.6l9-7.8l0,0c0.5,0.8,1.3,1.2,2.2,1.2c0.5,0,1-0.2,1.5-0.5v-0.2l1.7,5l0,0c-0.6,0-0.9,1.3-0.9,2
	c0,1.3,1,2.4,2.3,2.4c1,0,1.8-0.5,2.2-1.4l2.1,0.5l0,0v0.5c-0.1,1.2,0.9,2.3,2.1,2.3c0,0,0.1,0,0.1,0c0.1,0,0.3,0,0.4,0
	c-0.2,0-0.3,0-0.5,0h-0.2l1.2,5.8c-0.1,0.3-0.2,0.5-0.2,0.8c0,1.3,1,2.3,2.3,2.3c1.2,0,2.2-1,2.1-2.2c0,0,0-0.1,0-0.1
	c-0.1-0.7-0.4-1.3-1-1.7l0,0l4.7-10l0,0h0.4c1.3,0,2.4-1,2.4-2.3C49.1,25.5,48.1,24.5,46.9,24.5z M13.1,31.9c-0.7,0-1.3-0.6-1.3-1.3
	s0.6-1.3,1.3-1.3c0.7,0,1.3,0.6,1.3,1.3S13.8,31.9,13.1,31.9L13.1,31.9z M15.1,29.5L15.1,29.5z M24.3,21.7L24.3,21.7L24.3,21.7z
	 M26.5,22.4c-0.7,0-1.3-0.6-1.3-1.3s0.6-1.3,1.3-1.3c0.7,0,1.3,0.6,1.3,1.3c0,0,0,0,0,0C27.8,21.8,27.2,22.4,26.5,22.4L26.5,22.4z
	 M28.3,22.5L28.3,22.5L28.3,22.5z M30,27.9L30,27.9z M31,31.3c-0.7,0-1.3-0.6-1.3-1.3c0-0.7,0.6-1.3,1.3-1.3c0.7,0,1.3,0.6,1.3,1.3
	C32.3,30.7,31.7,31.3,31,31.3C31,31.3,31,31.3,31,31.3L31,31.3z M33.3,30.4c0-0.1,0-0.3,0-0.4C33.3,30.2,33.3,30.3,33.3,30.4
	L33.3,30.4z M35.4,30.8L35.4,30.8z M36.1,31.9c0-0.7,0.6-1.3,1.3-1.3c0.7,0,1.3,0.6,1.3,1.3c0,0.7-0.6,1.3-1.3,1.3
	C36.7,33.2,36.1,32.7,36.1,31.9C36.1,31.9,36.1,31.9,36.1,31.9L36.1,31.9z M38.8,39.4L38.8,39.4L38.8,39.4z M40.6,42.1
	c-0.7,0-1.3-0.6-1.3-1.3c0-0.7,0.6-1.3,1.3-1.3c0.7,0,1.3,0.6,1.3,1.3C41.9,41.5,41.3,42.1,40.6,42.1C40.6,42.1,40.6,42.1,40.6,42.1
	L40.6,42.1z M41.7,38.8L41.7,38.8z M46.1,29L46.1,29z M47,28.1c-0.7,0-1.3-0.6-1.3-1.3c0-0.7,0.6-1.3,1.3-1.3c0.7,0,1.3,0.6,1.3,1.3
	C48.3,27.5,47.7,28.1,47,28.1C47,28.1,46.9,28.1,47,28.1L47,28.1z"/>
</svg>
